apps/nuxt3-ssr/assets/minified-icons/User.svg

<svg viewBox="0 0 24 24" fill="none" xmlns="http://www.w3.org/2000/svg"><path fill-rule="evenodd" clip-rule="evenodd" d="M7.75 7.5C7.75 5.15279 9.65279 3.25 12 3.25C14.3472 3.25 16.25 5.15279 16.25 7.5C16.25 9.84721 14.3472 11.75 12 11.75C9.65279 11.75 7.75 9.84721 7.75 7.5ZM12 4.75C10.4812 4.75 9.25 5.98122 9.25 7.5C9.25 9.01878 10.4812 10.25 12 10.25C13.5188 10.25 14.75 9.01878 14.75 7.5C14.75 5.98122 13.5188 4.75 12 4.75Z" fill="currentColor"/><path fill-rule="evenodd" clip-rule="evenodd" d="M8 14.75C6.75736 14.75 5.75 15.7574 5.75 17V18.1883C5.75 18.2064 5.76311 18.2218 5.78097 18.2247C9.89972 18.8972 14.1003 18.8972 18.219 18.2247C18.2369 18.2218 18.25 18.2064 18.25 18.1883V17C18.25 15.7574 17.2426 14.75 16 14.75H15.6591C15.6328 14.75 15.6066 14.7542 15.5815 14.7623L14.716 15.045C12.9512 15.6212 11.0488 15.6212 9.28398 15.045L8.41847 14.7623C8.39342 14.7542 8.36722 14.75 8.34087 14.75H8ZM4.25 17C4.25 14.9289 5.92893 13.25 8 13.25H8.34087C8.52536 13.25 8.70869 13.2792 8.88407 13.3364L9.74959 13.6191C11.2119 14.0965 12.7881 14.0965 14.2504 13.6191L15.1159 13.3364C15.2913 13.2792 15.4746 13.25 15.6591 13.25H16C18.0711 13.25 19.75 14.9289 19.75 17V18.1883C19.75 18.9415 19.2041 19.5837 18.4607 19.7051C14.1819 20.4037 9.8181 20.4037 5.53927 19.7051C4.79588 19.5837 4.25 18.9415 4.25 18.1883V17Z" fill="currentColor"/></svg>

<svg fill="none" xmlns="http://www.w3.org/2000/svg" viewBox="0 0 24 24"><path fill-rule="evenodd" clip-rule="evenodd" d="M7.75 7.5a4.25 4.25 0 1 1 8.5 0 4.25 4.25 0 0 1-8.5 0ZM12 4.75a2.75 2.75 0 1 0 0 5.5 2.75 2.75 0 0 0 0-5.5ZM8 14.75A2.25 2.25 0 0 0 5.75 17v1.188c0 .018.013.034.031.037 4.119.672 8.32.672 12.438 0a.037.037 0 0 0 .031-.037V17A2.25 2.25 0 0 0 16 14.75h-.34a.253.253 0 0 0-.079.012l-.865.283a8.751 8.751 0 0 1-5.432 0l-.866-.283a.252.252 0 0 0-.077-.012H8ZM4.25 17A3.75 3.75 0 0 1 8 13.25h.34c.185 0 .369.03.544.086l.866.283a7.251 7.251 0 0 0 4.5 0l.866-.283c.175-.057.359-.086.543-.086H16A3.75 3.75 0 0 1 19.75 17v1.188c0 .754-.546 1.396-1.29 1.517a40.095 40.095 0 0 1-12.92 0 1.537 1.537 0 0 1-1.29-1.517V17Z" fill="currentColor"/></svg>
